!!!SOCIAL_FUNCTION:	isleta
!!!PDT:	1957
!!!OTL: No_49_War_Song_(b).krn
!!!LING_GROUP: Keresan
!!!LANG: Tone
!!!REG: Southwest
**kern
*staff1
=1-
*clefF4
*k[b-e-a-d-g-]
*M2/4
8.D-\L
16D-\Jk
4D-\
=2
4D-\
8.D-\L
16D-\Jk
=3!|:
16f\LL
16e-\J
8d-\J
8.d-\L
16B-\Jk
=4
4d-\
8.d-\L
16d-\Jk
=5
16B-\LK
8.A-\J
4A-\
=6
*M3/4
4A-\
8A-\
8r
8.A-\L
16A-\Jk
=7
*M2/4
16f\LL
16e-\J
8d-\J
8.d-\L
16B-\Jk
=8
4d-\
8.d-\L
16d-\Jk
=9
16B-\LK
8.A-\J
4A-\
=10
8.A-\L
16A-\Jk
8A-\
8r
=11
8.B-\L
16B-\Jk
8.B-\L
16B-\Jk
=12
*M3/8
8d-\L
16d-\L
16B-\J
8B-\J
=13
8A-\L
16A-\L
16F\J
8F\J
=14
*M3/4
4F\
4F\
8F\
16r
16B-\
=15
*M2/4
8.B-\L
16B-\Jk
8.B-\L
16B-\Jk
=16
*M3/8
8d-\L
16d-\L
16B-\J
8B-\J
=17
8A-\L
16A-\L
16F\J
8F\J
=18
*M3/4
4F\
4F\
8F\
16r
16B-\
=19
16B-\LK
8.A-\J
4A-\
16B-\LL
16B-\J
8A-\J
=20
4F\
8F\L
16F\L
16F\JJ
8D-\
16r
16G-\
=21
*M2/4
8.F\L
16G-\Jk
16F\LK
8.E-\J
=22
4F\
12F\L
12E-\
12F\J
=23
4D-\
4D-\
=24
8D-\
8r
4D-\
=25:|!
8D-\
16r
16F\
8F\L
16F\L
16D-\JJ
=26
4F\
4F\
=27
8F\
16r
16F\
8F\L
16F\L
16D-\JJ
=28
*M3/4
4F\
4F\
8F\
8r
=29
*M2/4
8.B-\L
16B-\Jk
8.B-\L
16B-\Jk
=30
*M3/8
8d-\L
16d-\L
16B-\J
8B-\J
=31
8A-\L
16A-\L
16F\J
8F\J
=32
*M3/4
4F\
4F\
8F\
16r
16B-\
=33
*M2/4
8.B-\L
16B-\Jk
8.B-\L
16B-\Jk
=34
*M3/8
8d-\
4d-\
=35
4B-\
8B-\
=36
8A-\L
16A-\L
16F\J
8F\J
=37
*M3/4
4F\
4F\
8F\
16r
16B-\
=38
16B-\LK
8.A-\J
4A-\
16B-\LL
16B-\J
8A-\J
=39
4F\
8F\L
16F\L
16F\JJ
8D-\
16r
16G-\
=40
*M2/4
8.F\L
16G-\Jk
16F\LK
8.E-\J
=41
*M3/8
8F\L
16F\L
16E-\J
8F\J
=42
*M2/4
8.D-\L
16D-\Jk
4D-\
=43
4D-\
8D-\
8r
==
*-
